img/svg/iso-cpp-logo-greyscale.svg

<?xml version="1.0" standalone="no"?>
<!DOCTYPE svg PUBLIC "-//W3C//DTD SVG 1.0//EN" "http://www.w3.org/TR/2001/REC-SVG-20010904/DTD/svg10.dtd">
<svg xmlns="http://www.w3.org/2000/svg" xmlns:xlink="http://www.w3.org/1999/xlink" id="body_1" width="306" height="344">

<g transform="matrix(1 0 0 0.99898356 0 0)">
    <path d="M302.107 258.262C 304.508 254.103 306 249.41699 306 245.209L306 245.209L306 99.14C 306 94.932 304.51 90.247 302.108 86.088L302.108 86.088L153 172.175L302.107 258.262z" stroke="none" fill="#00599C" fill-rule="nonzero" />
    <path d="M166.25 341.193L292.75 268.159C 296.394 266.055 299.706 262.422 302.107 258.262L302.107 258.262L153 172.175L3.893 258.263C 6.2939997 262.422 9.607 266.056 13.25 268.159L13.25 268.159L139.75 341.193C 147.037 345.401 158.963 345.401 166.25 341.193z" stroke="none" fill="#004482" fill-rule="nonzero" />
    <path d="M302.108 86.087C 299.706 81.927 296.393 78.294 292.75 76.189995L292.75 76.189995L166.25 3.156C 158.963 -1.0520003 147.037 -1.0520003 139.75 3.156L139.75 3.156L13.25 76.19C 5.962 80.397 0 90.725 0 99.14L0 99.14L0 245.209C 0 249.41699 1.491 254.103 3.893 258.262L3.893 258.262L153 172.175L302.108 86.087z" stroke="none" fill="#659AD2" fill-rule="nonzero" />
	<g>
        <path d="M153 274.175C 96.757 274.175 51 228.41798 51 172.17499C 51 115.93199 96.757 70.17499 153 70.17499C 189.29199 70.17499 223.139 89.70499 241.331 121.14299L241.331 121.14299L197.18799 146.687C 188.083 130.95099 171.15 121.174995 152.99998 121.174995C 124.87798 121.174995 101.999985 144.053 101.999985 172.17499C 101.999985 200.29599 124.87798 223.17499 152.99998 223.17499C 171.15198 223.17499 188.08499 213.39899 197.19098 197.65999L197.19098 197.65999L241.33398 223.20299C 223.142 254.644 189.294 274.175 153 274.175z" stroke="none" fill="#FFFFFF" fill-rule="nonzero" />
	</g>
	<g>
        <path d="M255 166.508L243.666 166.508L243.666 155.175L232.334 155.175L232.334 166.508L221 166.508L221 177.841L232.334 177.841L232.334 189.175L243.666 189.175L243.666 177.841L255 177.841L255 166.508" stroke="none" fill="#FFFFFF" fill-rule="nonzero" />
	</g>
	<g>
        <path d="M297.5 166.508L286.166 166.508L286.166 155.175L274.834 155.175L274.834 166.508L263.5 166.508L263.5 177.841L274.834 177.841L274.834 189.175L286.166 189.175L286.166 177.841L297.5 177.841L297.5 166.508" stroke="none" fill="#FFFFFF" fill-rule="nonzero" />
	</g>
</g>
</svg>

<?xml version="1.0" encoding="UTF-8"?>
<svg id="Layer_1" data-name="Layer 1" xmlns="http://www.w3.org/2000/svg" viewBox="0 0 306 344.35">
  <defs>
    <style>
      .cls-1 {
        fill: #fff;
      }

      .cls-2 {
        fill: #363636;
      }

      .cls-3 {
        fill: #909090;
      }

      .cls-4 {
        fill: #464646;
      }
    </style>
  </defs>
  <path class="cls-4" d="m302.11,258.26c2.4-4.16,3.89-8.85,3.89-13.05V99.14c0-4.21-1.49-8.89-3.89-13.05l-149.11,86.09,149.11,86.09Z"/>
  <path class="cls-2" d="m166.25,341.19l126.5-73.03c3.64-2.1,6.96-5.74,9.36-9.9l-149.11-86.09L3.89,258.26c2.4,4.16,5.71,7.79,9.36,9.9l126.5,73.03c7.29,4.21,19.21,4.21,26.5,0Z"/>
  <path class="cls-3" d="m302.11,86.09c-2.4-4.16-5.71-7.79-9.36-9.9L166.25,3.16c-7.29-4.21-19.21-4.21-26.5,0L13.25,76.19c-7.29,4.21-13.25,14.53-13.25,22.95v146.07c0,4.21,1.49,8.89,3.89,13.05l149.11-86.09,149.11-86.09Z"/>
  <path class="cls-1" d="m153,274.17c-56.24,0-102-45.76-102-102s45.76-102,102-102c36.29,0,70.14,19.53,88.33,50.97l-44.14,25.54c-9.1-15.74-26.04-25.51-44.19-25.51-28.12,0-51,22.88-51,51s22.88,51,51,51c18.15,0,35.09-9.78,44.19-25.51l44.14,25.54c-18.19,31.44-52.04,50.97-88.33,50.97Z"/>
  <polygon class="cls-1" points="255 166.51 243.67 166.51 243.67 155.18 232.33 155.18 232.33 166.51 221 166.51 221 177.84 232.33 177.84 232.33 189.18 243.67 189.18 243.67 177.84 255 177.84 255 166.51"/>
  <polygon class="cls-1" points="297.5 166.51 286.17 166.51 286.17 155.18 274.83 155.18 274.83 166.51 263.5 166.51 263.5 177.84 274.83 177.84 274.83 189.18 286.17 189.18 286.17 177.84 297.5 177.84 297.5 166.51"/>
</svg>
